X:1     %Music
T:Travel the Country Round
B:Broadwood, L, 1908, English Traditional Songs and Carols, London, Boosey
N:Reprinted by EP Publishing Limited, Rowman & Littlefield, Totowa, New Jersey, 1974
Z:Lucy Broadwood
S:Mr H Burstow, 1893
F:http://www.folkinfo.org/songs
M:6/8     %Meter
L:1/8     %
K:Ab
E |E2 A A A B |c3 A z A | (FG) A E2 E |C A,2-A, z
w:I am a jo-vi-al ran-ger, I fear_ no kind of dang-er;_ 
A |B2 B B2 B |c3 c2 A |B2 B A2 F |E3-E z
w:To sor-row I'm a strang-er, And so let mirth a-bound_
A |E E E E2 D |(CE) A2 z C | D2 D D2 B, |(CE) A2 z 
w:I once had a fit of lov--ing, But, that con-tra-ry prov--ing, 
E |A2 A c2 c |He3 Hd2 d |c c c (BA) B |A3- A2 z |]
w:It set my mind a-rov-ing To tra-vel the coun--try round.